src/helpers/assets-list/aIcons/aeth.svg

<svg width="256" height="256" viewBox="0 0 256 256" fill="none" xmlns="http://www.w3.org/2000/svg">
    <g clip-path="url(#clip0_2_3128)">
        <path d="M128 256C198.692 256 256 198.692 256 128C256 57.3075 198.692 0 128 0C57.3075 0 0 57.3075 0 128C0 198.692 57.3075 256 128 256Z" fill="white"/>
        <path d="M128 256C119.334 256.002 110.691 255.131 102.2 253.4C85.8269 250.046 70.2744 243.501 56.43 234.139C35.8506 220.247 19.7416 200.686 10.055 177.824C6.78329 170.082 4.28611 162.034 2.59996 153.8C-0.867305 136.777 -0.867305 119.23 2.59996 102.207C5.95345 85.834 12.4979 70.2816 21.86 56.437C35.7519 35.8564 55.3144 19.7464 78.177 10.059C85.9188 6.78584 93.9657 4.28732 102.2 2.59998C119.223 -0.867475 136.77 -0.867475 153.793 2.59998C170.166 5.95343 185.718 12.4979 199.563 21.86C220.142 35.7519 236.251 55.314 245.938 78.176C249.212 85.9181 251.712 93.9653 253.4 102.2C256.867 119.223 256.867 136.77 253.4 153.793C250.047 170.166 243.502 185.719 234.14 199.563C220.247 220.142 200.686 236.251 177.824 245.938C170.082 249.212 162.035 251.711 153.8 253.4C145.309 255.131 136.665 256.002 128 256ZM128 13.713C120.264 13.7113 112.547 14.4892 104.967 16.035C90.3478 19.0289 76.4613 24.8724 64.1 33.232C45.7279 45.637 31.3473 63.1032 22.7 83.515C19.7777 90.4283 17.5471 97.6141 16.041 104.967C12.9451 120.166 12.9451 135.833 16.041 151.032C19.036 165.651 24.8805 179.537 33.241 191.898C45.6449 210.272 63.1108 224.655 83.523 233.305C90.4368 236.227 97.6228 238.457 104.976 239.963C120.175 243.059 135.842 243.059 151.041 239.963C165.66 236.969 179.547 231.125 191.907 222.763C210.276 210.358 224.654 192.894 233.3 172.485C236.222 165.571 238.453 158.385 239.959 151.032C243.055 135.833 243.055 120.166 239.959 104.967C236.964 90.3483 231.119 76.4625 222.759 64.102C210.357 45.7305 192.894 31.3491 172.485 22.7C165.571 19.7779 158.385 17.5474 151.032 16.041C143.452 14.4936 135.736 13.714 128 13.714V13.713Z" fill="url(#paint0_linear_2_3128)"/>
        <path d="M130.899 177.688V226.288L190.962 141.65L130.899 177.688Z" fill="#3B3735"/>
        <path d="M188.778 125.814L130.899 29.714V99.606L188.778 125.814Z" fill="#3B3735"/>
        <path d="M130.899 105.049V164.566L188.232 131.258L130.899 105.049Z" fill="#1F1D19"/>
        <path d="M67.5559 125.814L125.435 29.714V99.606L67.5559 125.814Z" fill="#959190"/>
        <path d="M125.43 105.049V164.566L68.0969 131.258L125.43 105.049Z" fill="#403C3A"/>
        <path d="M125.434 177.688V226.288L65.3708 141.65L125.434 177.688Z" fill="#959190"/>
    </g>
    <defs>
        <linearGradient id="paint0_linear_2_3128" x1="215.808" y1="34.5595" x2="52.7359" y2="226.816" gradientUnits="userSpaceOnUse">
            <stop stop-color="#B6509E"/>
            <stop offset="1" stop-color="#2EBAC6"/>
        </linearGradient>
        <clipPath id="clip0_2_3128">
            <rect width="256" height="256" fill="white"/>
        </clipPath>
    </defs>
</svg>

<svg xmlns="http://www.w3.org/2000/svg" id="Group_30938" width="256" height="256.001" viewBox="0 0 256 256.001">
    <defs>
        <linearGradient id="linear-gradient" x1=".843" x2=".206" y1=".135" y2=".886" gradientUnits="objectBoundingBox">
            <stop offset="0" stop-color="#b6509e"/>
            <stop offset="1" stop-color="#2ebac6"/>
        </linearGradient>
        <style>
            .cls-3{fill:#3b3735}.cls-5{fill:#959190}
        </style>
    </defs>
    <circle id="Ellipse_1585" cx="128" cy="128" r="128" fill="#fff"/>
    <g id="Group_17812" transform="translate(-20 -20)">
        <path id="Subtraction_108" fill="url(#linear-gradient)" d="M128 256a128.976 128.976 0 0 1-25.8-2.6 127.309 127.309 0 0 1-45.77-19.261 128.366 128.366 0 0 1-46.375-56.315A127.357 127.357 0 0 1 2.6 153.8a129.251 129.251 0 0 1 0-51.593 127.31 127.31 0 0 1 19.26-45.77 128.372 128.372 0 0 1 56.317-46.378A127.33 127.33 0 0 1 102.2 2.6a129.244 129.244 0 0 1 51.593 0 127.308 127.308 0 0 1 45.77 19.26 128.367 128.367 0 0 1 46.375 56.316A127.343 127.343 0 0 1 253.4 102.2a129.248 129.248 0 0 1 0 51.593 127.3 127.3 0 0 1-19.26 45.77 128.382 128.382 0 0 1-56.316 46.375A127.4 127.4 0 0 1 153.8 253.4 128.977 128.977 0 0 1 128 256zm0-242.287a115.145 115.145 0 0 0-23.033 2.322A113.657 113.657 0 0 0 64.1 33.232a114.622 114.622 0 0 0-41.4 50.283 113.7 113.7 0 0 0-6.659 21.452 115.4 115.4 0 0 0 0 46.065 113.66 113.66 0 0 0 17.2 40.866 114.627 114.627 0 0 0 50.282 41.407 113.75 113.75 0 0 0 21.453 6.658 115.381 115.381 0 0 0 46.065 0 113.609 113.609 0 0 0 40.866-17.2 114.622 114.622 0 0 0 41.393-50.278 113.741 113.741 0 0 0 6.659-21.453 115.4 115.4 0 0 0 0-46.065 113.662 113.662 0 0 0-17.2-40.865A114.619 114.619 0 0 0 172.485 22.7a113.74 113.74 0 0 0-21.453-6.659A115.145 115.145 0 0 0 128 13.714z" transform="translate(20 20)"/>
        <g id="ETH" transform="translate(85.371 49.714)">
            <path id="Path_2995" d="M155.4 72.338v48.6L215.463 36.3z" class="cls-3" transform="translate(-89.872 75.636)"/>
            <path id="Path_2996" d="M213.279 111.9L155.4 15.8v69.892z" class="cls-3" transform="translate(-89.872 -15.8)"/>
            <path id="Path_2997" fill="#1f1d19" d="M155.4 29.6v59.517l57.333-33.308z" transform="translate(-89.872 45.735)"/>
            <path id="Path_2998" d="M143.8 111.9l57.879-96.1v69.892z" class="cls-5" transform="translate(-141.615 -15.8)"/>
            <path id="Path_2999" fill="#403c3a" d="M201.233 29.6v59.517L143.9 55.809z" transform="translate(-141.174 45.735)"/>
            <path id="Path_3000" d="M203.463 72.338v48.6L143.4 36.3z" class="cls-5" transform="translate(-143.4 75.636)"/>
        </g>
    </g>
</svg>
